static/covid/covid_free_zone_badge.svg

<svg width="233" height="116" fill="none" xmlns="http://www.w3.org/2000/svg"><path d="M38.86 39.98c-2.69 0-4.92-.84-6.71-2.51s-2.68-3.82-2.68-6.46c0-2.65.89-4.81 2.66-6.47 1.78-1.66 4.02-2.5 6.72-2.5 3.48 0 6 1.55 7.56 4.65l-3.85 1.82c-.29-.71-.78-1.31-1.47-1.79s-1.43-.73-2.25-.73c-1.4 0-2.56.48-3.47 1.44-.91.96-1.36 2.15-1.36 3.57s.46 2.61 1.36 3.57c.91.96 2.07 1.44 3.47 1.44.81 0 1.56-.24 2.25-.73.68-.48 1.17-1.08 1.47-1.79l3.85 1.82c-.66 1.32-1.61 2.42-2.85 3.31-1.22.91-2.79 1.36-4.7 1.36zM63.37 37.45c-1.75 1.68-3.96 2.52-6.63 2.52s-4.88-.84-6.64-2.52c-1.76-1.68-2.64-3.83-2.64-6.45s.88-4.76 2.64-6.45c1.76-1.68 3.97-2.52 6.64-2.52 2.67 0 4.88.84 6.63 2.52 1.75 1.68 2.62 3.83 2.62 6.45.01 2.63-.87 4.77-2.62 6.45zm-6.62-1.42c1.4 0 2.54-.48 3.4-1.43.87-.95 1.3-2.15 1.3-3.59s-.43-2.63-1.3-3.59c-.87-.95-2-1.43-3.4-1.43-1.42 0-2.56.48-3.43 1.43-.87.95-1.3 2.15-1.3 3.59s.43 2.63 1.3 3.59c.86.95 2 1.43 3.43 1.43zM78.03 39.66h-5.61L65.9 22.32h5.07l4.26 12.5 4.29-12.5h5.07l-6.56 17.34zM90.33 39.66h-4.47V22.33h4.47v17.33zM100.75 39.66h-7.3V22.33h7.28c2.77 0 5.03.78 6.77 2.34 1.74 1.56 2.61 3.67 2.61 6.32 0 2.65-.87 4.76-2.61 6.33-1.75 1.56-4 2.34-6.75 2.34zm-.03-3.9c1.47 0 2.64-.46 3.51-1.39.87-.93 1.3-2.06 1.3-3.39 0-1.4-.42-2.55-1.25-3.43-.83-.88-2.01-1.33-3.53-1.33h-2.83v9.54h2.8zM35.16 66.12H30.2V42.83h16.48v4.37H35.16v4.92h11.28v4.37H35.16v9.63zM69 66.12h-5.69l-4.57-8.28H55.1v8.28h-4.96V42.83h10.9c2.4 0 4.3.7 5.71 2.1 1.41 1.4 2.11 3.2 2.11 5.41 0 1.91-.49 3.46-1.48 4.64-.99 1.19-2.19 1.94-3.61 2.27L69 66.12zm-8.69-12.64c1.02 0 1.86-.28 2.51-.86.65-.57.98-1.33.98-2.29 0-.95-.33-1.72-.98-2.29-.65-.57-1.49-.86-2.51-.86h-5.2v6.29h5.2v.01zM89.08 66.12H72.6V42.83h16.48v4.37H77.56v4.92h11.28v4.37H77.56v5.27h11.52v4.36zM109.44 66.12H92.96V42.83h16.48v4.37H97.92v4.92h11.28v4.37H97.92v5.27h11.52v4.36zM45.7 89.57H30.32V87.4l11.82-16.52H30.32v-2.33h15.16v2.17L33.66 87.24H45.7v2.33zM58.75 89.95c-3.09 0-5.6-1.03-7.53-3.09-1.93-2.06-2.9-4.65-2.9-7.79 0-3.13.97-5.73 2.9-7.79 1.93-2.06 4.44-3.09 7.53-3.09 3.07 0 5.57 1.03 7.52 3.09 1.94 2.06 2.92 4.66 2.92 7.79s-.97 5.73-2.92 7.79c-1.95 2.06-4.45 3.09-7.52 3.09zm0-2.33c2.31 0 4.18-.8 5.6-2.41s2.13-3.65 2.13-6.13c0-2.5-.71-4.55-2.13-6.15-1.42-1.6-3.28-2.4-5.6-2.4-2.33 0-4.2.8-5.61 2.4-1.41 1.6-2.11 3.65-2.11 6.15 0 2.48.7 4.52 2.11 6.13 1.41 1.6 3.28 2.41 5.61 2.41zM90.68 89.57h-2.52L75.9 72.8v16.77h-2.62V68.55h2.68l12.1 16.42V68.55h2.62v21.02zM109.38 89.57H95.6V68.55h13.78v2.33H98.22v6.78h10.94v2.33H98.22v7.25h11.16v2.33zM192.77 57.68c-2.51-1.9-5.42-1.17-6.86.79a.78.78 0 01-.73.33l-.68-.1c-.76-.11-1.35-.74-1.36-1.51-.05-3.08-.82-6.02-2.18-8.63-.37-.71-.16-1.59.49-2.07l.48-.36c.24-.18.56-.19.84-.07 2.2 1.01 5.09.26 6.38-2.6.27-.59.37-1.26.29-1.9-.54-4.1-4.78-5.51-7.51-3.46a4.641 4.641 0 00-1.82 4.4c.04.3-.06.6-.3.79l-.48.36c-.64.48-1.55.44-2.13-.12a19.223 19.223 0 00-7.64-4.52c-.74-.23-1.2-.97-1.09-1.74l.1-.69c.04-.29.25-.51.52-.61 2.28-.83 3.81-3.42 2.7-6.36-.23-.61-.63-1.15-1.14-1.54-3.28-2.52-7.27-.51-7.76 2.86-.25 1.75.5 3.41 1.83 4.4.24.18.39.47.34.77l-.1.66c-.11.76-.74 1.35-1.51 1.36-3.08.05-6.02.82-8.63 2.18-.71.37-1.59.16-2.07-.49l-.36-.48c-.18-.24-.19-.56-.07-.84 1.01-2.2.26-5.09-2.6-6.38a3.55 3.55 0 00-1.9-.29c-4.1.54-5.51 4.78-3.46 7.51a4.641 4.641 0 004.4 1.82c.3-.04.6.06.79.3l.36.48c.48.64.44 1.55-.12 2.13a19.223 19.223 0 00-4.52 7.64c-.23.74-.97 1.2-1.74 1.09l-.69-.1c-.29-.04-.51-.25-.61-.52-.83-2.28-3.42-3.81-6.36-2.7-.61.23-1.15.63-1.55 1.14-2.52 3.28-.51 7.27 2.86 7.76 1.75.25 3.41-.5 4.4-1.83.18-.24.47-.39.77-.34l.66.1c.76.11 1.35.74 1.36 1.51.05 3.08.82 6.02 2.18 8.63.37.71.16 1.59-.49 2.07l-.48.36c-.24.18-.56.19-.84.07-2.2-1.01-5.09-.26-6.38 2.6a3.55 3.55 0 00-.29 1.9c.54 4.1 4.78 5.51 7.51 3.46a4.641 4.641 0 001.82-4.4c-.04-.3.06-.6.3-.79l.48-.36c.64-.48 1.55-.44 2.13.12 2.12 2.04 4.71 3.61 7.64 4.52.74.23 1.2.97 1.09 1.74l-.1.69c-.04.29-.25.51-.52.61-2.28.83-3.81 3.42-2.69 6.36.23.61.63 1.15 1.14 1.54 3.28 2.52 7.27.51 7.76-2.86.25-1.75-.5-3.41-1.83-4.4-.24-.18-.39-.47-.34-.77l.1-.66c.11-.76.74-1.35 1.51-1.36 3.08-.05 6.02-.82 8.63-2.18.71-.37 1.59-.16 2.07.49l.36.48c.18.24.19.56.07.84-1.01 2.2-.26 5.09 2.6 6.38.59.27 1.26.37 1.9.29 4.1-.54 5.51-4.78 3.46-7.51a4.641 4.641 0 00-4.4-1.82c-.3.04-.6-.06-.79-.3l-.36-.48c-.48-.64-.44-1.55.12-2.13 2.04-2.12 3.61-4.71 4.52-7.64.23-.74.97-1.2 1.74-1.09l.66.1c.3.04.53.26.64.55a4.66 4.66 0 003.7 3c3.38.49 6.43-2.78 4.94-6.64-.24-.62-.65-1.15-1.16-1.54z" fill="#fff"/><path d="M197.36 29.39l6.17-6.17-4.24-4.24-6.09 6.09c-7.83-7.1-18.22-11.43-29.6-11.43-24.33 0-44.12 19.79-44.12 44.12 0 11.38 4.33 21.77 11.43 29.6l-7.26 7.26 4.24 4.24 7.35-7.35c7.68 6.46 17.57 10.36 28.36 10.36 24.33 0 44.12-19.79 44.12-44.12 0-10.78-3.9-20.68-10.36-28.36zm-71.89 28.37c0-21.02 17.1-38.12 38.12-38.12 9.73 0 18.61 3.67 25.35 9.68l-53.79 53.79c-6.01-6.74-9.68-15.62-9.68-25.35zm38.12 38.12c-9.14 0-17.53-3.23-24.11-8.62l53.62-53.62c5.38 6.57 8.62 14.97 8.62 24.11 0 21.03-17.1 38.13-38.13 38.13z" fill="#D82735"/></svg>

<svg width="233" height="116" viewBox="0 0 233 116" fill="none" xmlns="http://www.w3.org/2000/svg">
<path d="M38.86 39.98C36.17 39.98 33.94 39.14 32.15 37.47C30.36 35.8 29.47 33.65 29.47 31.01C29.47 28.36 30.36 26.2 32.13 24.54C33.91 22.88 36.15 22.04 38.85 22.04C42.33 22.04 44.85 23.59 46.41 26.69L42.56 28.51C42.27 27.8 41.78 27.2 41.09 26.72C40.4 26.24 39.66 25.99 38.84 25.99C37.44 25.99 36.28 26.47 35.37 27.43C34.46 28.39 34.01 29.58 34.01 31C34.01 32.42 34.47 33.61 35.37 34.57C36.28 35.53 37.44 36.01 38.84 36.01C39.65 36.01 40.4 35.77 41.09 35.28C41.77 34.8 42.26 34.2 42.56 33.49L46.41 35.31C45.75 36.63 44.8 37.73 43.56 38.62C42.34 39.53 40.77 39.98 38.86 39.98Z" fill="white"/>
<path d="M63.37 37.45C61.62 39.13 59.41 39.97 56.74 39.97C54.07 39.97 51.86 39.13 50.1 37.45C48.34 35.77 47.46 33.62 47.46 31C47.46 28.38 48.34 26.24 50.1 24.55C51.86 22.87 54.07 22.03 56.74 22.03C59.41 22.03 61.62 22.87 63.37 24.55C65.12 26.23 65.99 28.38 65.99 31C66 33.63 65.12 35.77 63.37 37.45ZM56.75 36.03C58.15 36.03 59.29 35.55 60.15 34.6C61.02 33.65 61.45 32.45 61.45 31.01C61.45 29.57 61.02 28.38 60.15 27.42C59.28 26.47 58.15 25.99 56.75 25.99C55.33 25.99 54.19 26.47 53.32 27.42C52.45 28.37 52.02 29.57 52.02 31.01C52.02 32.45 52.45 33.64 53.32 34.6C54.18 35.55 55.32 36.03 56.75 36.03Z" fill="white"/>
<path d="M78.03 39.66H72.42L65.9 22.32H70.97L75.23 34.82L79.52 22.32H84.59L78.03 39.66Z" fill="white"/>
<path d="M90.33 39.66H85.86V22.33H90.33V39.66Z" fill="white"/>
<path d="M100.75 39.66H93.45V22.33H100.73C103.5 22.33 105.76 23.11 107.5 24.67C109.24 26.23 110.11 28.34 110.11 30.99C110.11 33.64 109.24 35.75 107.5 37.32C105.75 38.88 103.5 39.66 100.75 39.66ZM100.72 35.76C102.19 35.76 103.36 35.3 104.23 34.37C105.1 33.44 105.53 32.31 105.53 30.98C105.53 29.58 105.11 28.43 104.28 27.55C103.45 26.67 102.27 26.22 100.75 26.22H97.92V35.76H100.72Z" fill="white"/>
<path d="M35.16 66.12H30.2V42.83H46.68V47.2H35.16V52.12H46.44V56.49H35.16V66.12Z" fill="white"/>
<path d="M69 66.12H63.31L58.74 57.84H55.1V66.12H50.14V42.83H61.04C63.44 42.83 65.34 43.53 66.75 44.93C68.16 46.33 68.86 48.13 68.86 50.34C68.86 52.25 68.37 53.8 67.38 54.98C66.39 56.17 65.19 56.92 63.77 57.25L69 66.12ZM60.31 53.48C61.33 53.48 62.17 53.2 62.82 52.62C63.47 52.05 63.8 51.29 63.8 50.33C63.8 49.38 63.47 48.61 62.82 48.04C62.17 47.47 61.33 47.18 60.31 47.18H55.11V53.47H60.31V53.48Z" fill="white"/>
<path d="M89.08 66.12H72.6V42.83H89.08V47.2H77.56V52.12H88.84V56.49H77.56V61.76H89.08V66.12Z" fill="white"/>
<path d="M109.44 66.12H92.96V42.83H109.44V47.2H97.92V52.12H109.2V56.49H97.92V61.76H109.44V66.12Z" fill="white"/>
<path d="M45.7 89.57H30.32V87.4L42.14 70.88H30.32V68.55H45.48V70.72L33.66 87.24H45.7V89.57Z" fill="white"/>
<path d="M58.75 89.95C55.66 89.95 53.15 88.92 51.22 86.86C49.29 84.8 48.32 82.21 48.32 79.07C48.32 75.94 49.29 73.34 51.22 71.28C53.15 69.22 55.66 68.19 58.75 68.19C61.82 68.19 64.32 69.22 66.27 71.28C68.21 73.34 69.19 75.94 69.19 79.07C69.19 82.2 68.22 84.8 66.27 86.86C64.32 88.92 61.82 89.95 58.75 89.95ZM58.75 87.62C61.06 87.62 62.93 86.82 64.35 85.21C65.77 83.6 66.48 81.56 66.48 79.08C66.48 76.58 65.77 74.53 64.35 72.93C62.93 71.33 61.07 70.53 58.75 70.53C56.42 70.53 54.55 71.33 53.14 72.93C51.73 74.53 51.03 76.58 51.03 79.08C51.03 81.56 51.73 83.6 53.14 85.21C54.55 86.81 56.42 87.62 58.75 87.62Z" fill="white"/>
<path d="M90.68 89.57H88.16L75.9 72.8V89.57H73.28V68.55H75.96L88.06 84.97V68.55H90.68V89.57Z" fill="white"/>
<path d="M109.38 89.57H95.6V68.55H109.38V70.88H98.22V77.66H109.16V79.99H98.22V87.24H109.38V89.57Z" fill="white"/>
<path d="M192.77 57.68C190.26 55.78 187.35 56.51 185.91 58.47C185.74 58.7 185.47 58.84 185.18 58.8L184.5 58.7C183.74 58.59 183.15 57.96 183.14 57.19C183.09 54.11 182.32 51.17 180.96 48.56C180.59 47.85 180.8 46.97 181.45 46.49L181.93 46.13C182.17 45.95 182.49 45.94 182.77 46.06C184.97 47.07 187.86 46.32 189.15 43.46C189.42 42.87 189.52 42.2 189.44 41.56C188.9 37.46 184.66 36.05 181.93 38.1C180.51 39.16 179.87 40.87 180.11 42.5C180.15 42.8 180.05 43.1 179.81 43.29L179.33 43.65C178.69 44.13 177.78 44.09 177.2 43.53C175.08 41.49 172.49 39.92 169.56 39.01C168.82 38.78 168.36 38.04 168.47 37.27L168.57 36.58C168.61 36.29 168.82 36.07 169.09 35.97C171.37 35.14 172.9 32.55 171.79 29.61C171.56 29 171.16 28.46 170.65 28.07C167.37 25.55 163.38 27.56 162.89 30.93C162.64 32.68 163.39 34.34 164.72 35.33C164.96 35.51 165.11 35.8 165.06 36.1L164.96 36.76C164.85 37.52 164.22 38.11 163.45 38.12C160.37 38.17 157.43 38.94 154.82 40.3C154.11 40.67 153.23 40.46 152.75 39.81L152.39 39.33C152.21 39.09 152.2 38.77 152.32 38.49C153.33 36.29 152.58 33.4 149.72 32.11C149.13 31.84 148.46 31.74 147.82 31.82C143.72 32.36 142.31 36.6 144.36 39.33C145.42 40.75 147.13 41.39 148.76 41.15C149.06 41.11 149.36 41.21 149.55 41.45L149.91 41.93C150.39 42.57 150.35 43.48 149.79 44.06C147.75 46.18 146.18 48.77 145.27 51.7C145.04 52.44 144.3 52.9 143.53 52.79L142.84 52.69C142.55 52.65 142.33 52.44 142.23 52.17C141.4 49.89 138.81 48.36 135.87 49.47C135.26 49.7 134.72 50.1 134.32 50.61C131.8 53.89 133.81 57.88 137.18 58.37C138.93 58.62 140.59 57.87 141.58 56.54C141.76 56.3 142.05 56.15 142.35 56.2L143.01 56.3C143.77 56.41 144.36 57.04 144.37 57.81C144.42 60.89 145.19 63.83 146.55 66.44C146.92 67.15 146.71 68.03 146.06 68.51L145.58 68.87C145.34 69.05 145.02 69.06 144.74 68.94C142.54 67.93 139.65 68.68 138.36 71.54C138.09 72.13 137.99 72.8 138.07 73.44C138.61 77.54 142.85 78.95 145.58 76.9C147 75.84 147.64 74.13 147.4 72.5C147.36 72.2 147.46 71.9 147.7 71.71L148.18 71.35C148.82 70.87 149.73 70.91 150.31 71.47C152.43 73.51 155.02 75.08 157.95 75.99C158.69 76.22 159.15 76.96 159.04 77.73L158.94 78.42C158.9 78.71 158.69 78.93 158.42 79.03C156.14 79.86 154.61 82.45 155.73 85.39C155.96 86 156.36 86.54 156.87 86.93C160.15 89.45 164.14 87.44 164.63 84.07C164.88 82.32 164.13 80.66 162.8 79.67C162.56 79.49 162.41 79.2 162.46 78.9L162.56 78.24C162.67 77.48 163.3 76.89 164.07 76.88C167.15 76.83 170.09 76.06 172.7 74.7C173.41 74.33 174.29 74.54 174.77 75.19L175.13 75.67C175.31 75.91 175.32 76.23 175.2 76.51C174.19 78.71 174.94 81.6 177.8 82.89C178.39 83.16 179.06 83.26 179.7 83.18C183.8 82.64 185.21 78.4 183.16 75.67C182.1 74.25 180.39 73.61 178.76 73.85C178.46 73.89 178.16 73.79 177.97 73.55L177.61 73.07C177.13 72.43 177.17 71.52 177.73 70.94C179.77 68.82 181.34 66.23 182.25 63.3C182.48 62.56 183.22 62.1 183.99 62.21L184.65 62.31C184.95 62.35 185.18 62.57 185.29 62.86C185.86 64.41 187.24 65.6 188.99 65.86C192.37 66.35 195.42 63.08 193.93 59.22C193.69 58.6 193.28 58.07 192.77 57.68Z" fill="white"/>
<path d="M197.36 29.39L203.53 23.22L199.29 18.98L193.2 25.07C185.37 17.97 174.98 13.64 163.6 13.64C139.27 13.64 119.48 33.43 119.48 57.76C119.48 69.14 123.81 79.53 130.91 87.36L123.65 94.62L127.89 98.86L135.24 91.51C142.92 97.97 152.81 101.87 163.6 101.87C187.93 101.87 207.72 82.08 207.72 57.75C207.72 46.97 203.82 37.07 197.36 29.39ZM125.47 57.76C125.47 36.74 142.57 19.64 163.59 19.64C173.32 19.64 182.2 23.31 188.94 29.32L135.15 83.11C129.14 76.37 125.47 67.49 125.47 57.76ZM163.59 95.88C154.45 95.88 146.06 92.65 139.48 87.26L193.1 33.64C198.48 40.21 201.72 48.61 201.72 57.75C201.72 78.78 184.62 95.88 163.59 95.88Z" fill="#D82735"/>
</svg>
